img/svg/forks.svg

<?xml version="1.0" encoding="utf-8"?><!DOCTYPE svg PUBLIC "-//W3C//DTD SVG 1.1//EN" "http://www.w3.org/Graphics/SVG/1.1/DTD/svg11.dtd"><svg version="1.1" baseProfile="full" xmlns="http://www.w3.org/2000/svg" xmlns:xlink="http://www.w3.org/1999/xlink" xmlns:ev="http://www.w3.org/2001/xml-events"   height="33px"   width="23px" ><path fill="rgb( 255, 102, 0 )" d="M22.751,18.434 C22.751,18.434 22.478,18.568 22.478,18.568 C22.478,18.568 21.33,19.131 21.33,19.131 C21.33,19.131 20.022,18.155 20.022,18.155 C20.022,18.155 19.771,17.968 19.771,17.968 C19.771,17.968 19.539,17.795 19.539,17.795 C19.539,17.795 19.475,17.747 19.475,17.747 C19.475,17.747 19.665,0.37800000000004 19.665,0.37800000000004 C21.095,1.49099999999999 22.003,4.20500000000004 22.106,4.52499999999998 C22.106,4.52499999999998 22.972,17.879 22.972,17.879 C22.972,17.879 23,18.311 23,18.311 C23,18.311 22.751,18.434 22.751,18.434 ZM14.241,15.481 C14.074,15.583 13.894,15.665 13.701,15.726 C13.701,15.726 14.121,31.919 14.121,31.919 C14.121,32.256 13.405,32.649 13.069,32.649 C13.069,32.649 12.515,32.649 12.515,32.649 C12.179,32.649 11.4640000000001,32.288 11.4640000000001,31.951 C11.4640000000001,31.951 11.885,15.71 11.885,15.71 C11.692,15.643 11.5119999999999,15.554 11.346,15.443 C11.126,15.296 10.932,15.1079999999999 10.76,14.8869999999999 C10.226,14.198 9.93299999999999,13.1609999999999 9.93299999999999,11.822 C9.93299999999999,7.73099999999999 10.0599999999999,2.60500000000002 10.593,0.68899999999996 C10.7859999999999,0 10.591,0.12300000000005 11.504,0.74900000000002 C11.504,0.74900000000002 11.593,8.95000000000005 11.593,8.95000000000005 C11.593,9.07600000000002 11.65,9.67499999999995 11.722,9.67499999999995 C11.722,9.67499999999995 11.84,9.67499999999995 11.84,9.67499999999995 C11.9109999999999,9.67499999999995 11.9690000000001,9.07600000000002 11.9690000000001,8.95000000000005 C11.9690000000001,8.95000000000005 12.313,1.34400000000005 12.313,1.34400000000005 C12.404,1.34400000000005 13.187,1.85199999999998 13.504,2 C13.504,2 13.837,9.01199999999994 13.837,9.01199999999994 C13.837,9.13699999999994 13.895,9.67499999999995 13.966,9.67499999999995 C13.966,9.67499999999995 14.085,9.67499999999995 14.085,9.67499999999995 C14.1559999999999,9.67499999999995 14.215,9.07600000000002 14.215,8.95100000000002 C14.215,8.95100000000002 14.3049999999999,2.56200000000001 14.3049999999999,2.56200000000001 C15.678,3.61099999999999 15.678,6.54300000000001 15.678,11.928 C15.678,13.3440000000001 15.352,14.391 14.758,15.048 C14.604,15.2190000000001 14.431,15.364 14.241,15.481 ZM12.8390000000001,30.237 C12.441,30.237 12.119,30.568 12.119,30.976 C12.119,31.385 12.441,31.716 12.8390000000001,31.716 C13.236,31.716 13.559,31.385 13.5599999999999,30.976 C13.5599999999999,30.568 13.237,30.237 12.8390000000001,30.237 ZM4.55999999999995,11.728 C4.55999999999995,11.728 5.02599999999995,31.953 5.02599999999995,31.953 C5.02599999999995,32.378 4.226,32.65 3.85000000000002,32.65 C3.85000000000002,32.65 3.23000000000002,32.65 3.23000000000002,32.65 C2.85400000000004,32.65 2.05399999999997,32.378 2.05399999999997,31.953 C2.05399999999997,31.953 2.52099999999996,11.699 2.52099999999996,11.699 C0.91999999999996,11.154 0,9.37400000000002 0,7.25800000000004 C0,4.70799999999997 1.33199999999999,0.70899999999995 3.58699999999999,0.70899999999995 C5.84100000000001,0.70899999999995 7.173,4.70799999999997 7.173,7.25800000000004 C7.173,9.41499999999996 6.21799999999996,11.221 4.55999999999995,11.728 ZM3.58699999999999,29.556 C3.16600000000005,29.556 2.82399999999996,29.942 2.82399999999996,30.418 C2.82399999999996,30.895 3.16499999999996,31.2809999999999 3.58699999999999,31.2809999999999 C4.00800000000004,31.2809999999999 4.35000000000002,30.895 4.34900000000005,30.418 C4.34900000000005,29.942 4.00800000000004,29.556 3.58699999999999,29.556 ZM22.478,19.189 C22.478,19.189 22.478,31.732 22.478,31.732 C22.478,32.431 21.925,33 21.2430000000001,33 C20.562,33 20.008,32.431 20.008,31.732 C20.008,31.732 20.008,18.838 20.008,18.838 C20.008,18.838 21.272,19.782 21.272,19.782 C21.272,19.782 22.478,19.189 22.478,19.189 ZM20.544,31.477 C20.544,31.873 20.856,32.194 21.242,32.194 C21.628,32.194 21.942,31.873 21.942,31.477 C21.942,31.08 21.629,30.759 21.242,30.759 C20.856,30.759 20.544,31.08 20.544,31.477 Z "/></svg>

<svg baseProfile="full" xmlns="http://www.w3.org/2000/svg" height="33" width="23"><path fill="rgb( 255, 102, 0 )" d="M22.751 18.434l-.273.134-1.148.563-1.308-.976-.251-.187-.232-.173-.064-.048.19-17.369c1.43 1.113 2.338 3.827 2.441 4.147l.866 13.354.028.432-.249.123zm-8.51-2.953c-.167.102-.347.184-.54.245l.42 16.193c0 .337-.716.73-1.052.73h-.554c-.336 0-1.051-.361-1.051-.698l.421-16.241c-.193-.067-.373-.156-.539-.267-.22-.147-.414-.335-.586-.556-.534-.689-.827-1.726-.827-3.065 0-4.091.127-9.217.66-11.133.193-.689-.002-.566.911.06l.089 8.201c0 .126.057.725.129.725h.118c.071 0 .129-.599.129-.725l.344-7.606c.091 0 .874.508 1.191.656l.333 7.012c0 .125.058.663.129.663h.119c.071 0 .13-.599.13-.724l.09-6.389c1.373 1.049 1.373 3.981 1.373 9.366 0 1.416-.326 2.463-.92 3.12-.154.171-.327.316-.517.433zm-1.402 14.756c-.398 0-.72.331-.72.739 0 .409.322.74.72.74.397 0 .72-.331.721-.74 0-.408-.323-.739-.721-.739zm-8.279-18.509l.466 20.225c0 .425-.8.697-1.176.697h-.62c-.376 0-1.176-.272-1.176-.697l.467-20.254c-1.601-.545-2.521-2.325-2.521-4.441 0-2.55 1.332-6.549 3.587-6.549 2.254 0 3.586 3.999 3.586 6.549 0 2.157-.955 3.963-2.613 4.47zm-.973 17.828c-.421 0-.763.386-.763.862 0 .477.341.863.763.863.421 0 .763-.386.762-.863 0-.476-.341-.862-.762-.862zm18.891-10.367v12.543c0 .699-.553 1.268-1.235 1.268-.681 0-1.235-.569-1.235-1.268v-12.894l1.264.944 1.206-.593zm-1.934 12.288c0 .396.312.717.698.717.386 0 .7-.321.7-.717 0-.397-.313-.718-.7-.718-.386 0-.698.321-.698.718z"/></svg>
